src/components/content/Icon/functional/system.svg

<svg width="100" height="100" viewBox="0 0 100 100" fill="none" xmlns="http://www.w3.org/2000/svg">
<path d="M71.0242 51.2541C71.0242 50.7021 70.5762 50.2541 70.0242 50.2541H59.5602C59.0082 50.2541 58.5602 50.7021 58.5602 51.2541C58.5602 51.8061 59.0082 52.2541 59.5602 52.2541H70.0242C70.5762 52.2541 71.0242 51.8061 71.0242 51.2541ZM55.4322 50.2541H44.9662C44.4142 50.2541 43.9662 50.7021 43.9662 51.2541C43.9662 51.8061 44.4142 52.2541 44.9662 52.2541H55.4322C55.9842 52.2541 56.4322 51.8061 56.4322 51.2541C56.4322 50.7021 55.9842 50.2541 55.4322 50.2541ZM40.8402 50.2541H30.3762C29.8242 50.2541 29.3762 50.7021 29.3762 51.2541C29.3762 51.8061 29.8242 52.2541 30.3762 52.2541H40.8402C41.3922 52.2541 41.8402 51.8061 41.8402 51.2541C41.8402 50.7021 41.3922 50.2541 40.8402 50.2541ZM29.0142 49.4241C29.5662 49.4241 30.0142 48.9761 30.0142 48.4241V29.6001C30.0142 29.0481 29.5662 28.6001 29.0142 28.6001C28.4622 28.6001 28.0142 29.0481 28.0142 29.6001V48.4241C28.0142 48.9761 28.4622 49.4241 29.0142 49.4241ZM29.0142 53.0821C28.4622 53.0821 28.0142 53.5301 28.0142 54.0821V72.9061C28.0142 73.4581 28.4622 73.9061 29.0142 73.9061C29.5662 73.9061 30.0142 73.4581 30.0142 72.9061V54.0821C30.0142 53.5301 29.5662 53.0821 29.0142 53.0821ZM43.1382 49.4241C43.6902 49.4241 44.1382 48.9761 44.1382 48.4241V29.6001C44.1382 29.0481 43.6902 28.6001 43.1382 28.6001C42.5862 28.6001 42.1382 29.0481 42.1382 29.6001V48.4241C42.1382 48.9761 42.5862 49.4241 43.1382 49.4241ZM43.1382 53.0821C42.5862 53.0821 42.1382 53.5301 42.1382 54.0821V72.9061C42.1382 73.4581 42.5862 73.9061 43.1382 73.9061C43.6902 73.9061 44.1382 73.4581 44.1382 72.9061V54.0821C44.1382 53.5301 43.6902 53.0821 43.1382 53.0821ZM57.2622 28.6001C56.7102 28.6001 56.2622 29.0481 56.2622 29.6001V48.4241C56.2622 48.9761 56.7102 49.4241 57.2622 49.4241C57.8142 49.4241 58.2622 48.9761 58.2622 48.4241V29.6001C58.2622 29.0481 57.8142 28.6001 57.2622 28.6001ZM57.2622 53.0821C56.7102 53.0821 56.2622 53.5301 56.2622 54.0821V72.9061C56.2622 73.4581 56.7102 73.9061 57.2622 73.9061C57.8142 73.9061 58.2622 73.4581 58.2622 72.9061V54.0821C58.2622 53.5301 57.8142 53.0821 57.2622 53.0821ZM71.3862 28.6001C70.8342 28.6001 70.3862 29.0481 70.3862 29.6001V48.4241C70.3862 48.9761 70.8342 49.4241 71.3862 49.4241C71.9382 49.4241 72.3862 48.9761 72.3862 48.4241V29.6001C72.3862 29.0481 71.9382 28.6001 71.3862 28.6001ZM71.3862 53.0821C70.8342 53.0821 70.3862 53.5301 70.3862 54.0821V72.9061C70.3862 73.4581 70.8342 73.9061 71.3862 73.9061C71.9382 73.9061 72.3862 73.4581 72.3862 72.9061V54.0821C72.3862 53.5301 71.9382 53.0821 71.3862 53.0821Z" fill="#0B301A"/>
</svg>

<svg xmlns="http://www.w3.org/2000/svg" width="100" height="100" fill="none" viewBox="0 0 100 100"><path fill="#0b301a" d="M71.024 51.254a1 1 0 0 0-1-1H59.56a1 1 0 0 0 0 2h10.464a1 1 0 0 0 1-1m-15.592-1H44.966a1 1 0 0 0 0 2h10.466a1 1 0 0 0 0-2m-14.592 0H30.376a1 1 0 0 0 0 2H40.84a1 1 0 0 0 0-2m-11.826-.83a1 1 0 0 0 1-1V29.6a1 1 0 0 0-2 0v18.824a1 1 0 0 0 1 1m0 3.658a1 1 0 0 0-1 1v18.824a1 1 0 0 0 2 0V54.082a1 1 0 0 0-1-1m14.124-3.658a1 1 0 0 0 1-1V29.6a1 1 0 0 0-2 0v18.824a1 1 0 0 0 1 1m0 3.658a1 1 0 0 0-1 1v18.824a1 1 0 0 0 2 0V54.082a1 1 0 0 0-1-1M57.262 28.6a1 1 0 0 0-1 1v18.824a1 1 0 0 0 2 0V29.6a1 1 0 0 0-1-1m0 24.482a1 1 0 0 0-1 1v18.824a1 1 0 0 0 2 0V54.082a1 1 0 0 0-1-1M71.386 28.6a1 1 0 0 0-1 1v18.824a1 1 0 0 0 2 0V29.6a1 1 0 0 0-1-1m0 24.482a1 1 0 0 0-1 1v18.824a1 1 0 0 0 2 0V54.082a1 1 0 0 0-1-1"/></svg>
